front/src/img/Rule1.svg

<svg width="160" height="160" viewBox="0 0 160 160" fill="none" xmlns="http://www.w3.org/2000/svg">
<path d="M45.2812 113.312C43.5312 113.312 42.0365 112.693 40.7969 111.453C39.5573 110.214 38.9375 108.719 38.9375 106.969V54.0312C38.9375 52.2812 39.5573 50.7865 40.7969 49.5469C42.0365 48.3073 43.5312 47.6875 45.2812 47.6875H115.719C117.469 47.6875 118.964 48.3073 120.203 49.5469C121.443 50.7865 122.062 52.2812 122.062 54.0312V106.969C122.062 108.719 121.443 110.214 120.203 111.453C118.964 112.693 117.469 113.312 115.719 113.312H45.2812ZM45.2812 108.391H77.9844V52.6094H45.2812C44.9167 52.6094 44.5885 52.7552 44.2969 53.0469C44.0052 53.3385 43.8594 53.6667 43.8594 54.0312V106.969C43.8594 107.333 44.0052 107.661 44.2969 107.953C44.5885 108.245 44.9167 108.391 45.2812 108.391ZM83.0156 108.391H115.719C116.083 108.391 116.411 108.245 116.703 107.953C116.995 107.661 117.141 107.333 117.141 106.969V54.0312C117.141 53.6667 116.995 53.3385 116.703 53.0469C116.411 52.7552 116.083 52.6094 115.719 52.6094H83.0156V108.391ZM87.8281 93.0781H112.328V88.7031H87.8281V93.0781ZM87.8281 81.4844H112.328V77H87.8281V81.4844ZM87.8281 69.7812H112.328V65.4062H87.8281V69.7812ZM43.8594 108.391V52.6094V108.391Z" fill="#FBD566"/>
<circle cx="80" cy="80" r="77" stroke="#FBD566" stroke-width="6"/>
</svg>

<svg xmlns="http://www.w3.org/2000/svg" width="160" height="160" fill="none"><path fill="#FBD566" d="M45.281 113.312c-1.75 0-3.245-.619-4.484-1.859-1.24-1.239-1.86-2.734-1.86-4.484V54.031c0-1.75.62-3.245 1.86-4.484 1.24-1.24 2.734-1.86 4.484-1.86h70.438c1.75 0 3.245.62 4.484 1.86 1.24 1.24 1.859 2.734 1.859 4.484v52.938c0 1.75-.619 3.245-1.859 4.484-1.239 1.24-2.734 1.859-4.484 1.859H45.281Zm0-4.921h32.703V52.609H45.281c-.364 0-.692.146-.984.438-.292.292-.438.62-.438.984v52.938c0 .364.146.692.438.984.292.292.62.438.984.438Zm37.735 0h32.703c.364 0 .692-.146.984-.438.292-.292.438-.62.438-.984V54.031c0-.364-.146-.692-.438-.984-.292-.292-.62-.438-.984-.438H83.016v55.782Zm4.812-15.313h24.5v-4.375h-24.5v4.375Zm0-11.594h24.5V77h-24.5v4.484Zm0-11.703h24.5v-4.375h-24.5v4.375Zm-43.969 38.61V52.609v55.782Z"/><circle cx="80" cy="80" r="77" stroke="#FBD566" stroke-width="6"/></svg>
